X:1
T:Fiskarfnget 
T:Opp Amaryllis
C:Carl Michael Bellman
R:Menuett
N:Fredmans sng nr 31 
L:1/8
M:3/4
K:D
"D"A2AAAA | "G"B2BBBB | "A7"dcBABc | "D"d2A2 D2 :|]
"D"F3A"A7"GE | "D"FGABcd | "A7"E3GFE | "Bm"DdcB"A7"AG | 
"D"F3A"A7"GE | "D"FGABcd | "G"(3BGE "D"(3AFD "A7"(3GEC | "D"D4z2 |]
